-----BEGIN PGP PUBLIC KEY BLOCK-----
Comment: 647F 2865 4894 E3BD 4571  99BE 38DB BDC8 6092 693E

xsFNBE58tdUBEADY5iQsoL4k8l06dNt+uP2lH8IPi14M51/tOHsW1ZNc8Iok0stH
+uA8w0LpN97UgNhsvXFEkIK2JjLalasUTiUoIeeTshD9t+ekFBx5a9SbLCFlBrDS
TwfieK2xalzomoL22N5ztj1XbdLWh6NRM6kKMeYvgAGo8p884WJk4pPIJK6G0wEw
e9/TG6ilRSLOtxyaF9yZ+FC1eOA1S47Ld2K25Y5GsQF5agwi7nES+9tVVBZp97kB
8IOvELeiSiY0xFXi60yfwIlK6x9dfcxsx5nCyrp2qdqQiPiMD0EJMiuA6wymoi5W
XtmfCpweTB8TvW8Y8uqrwYApzmDleBDTIDP0vCY1o9eftJcWWMkRKC9c7Ziy4nT6
TzmVkNXgqC8/BuOQbpU7I/1VCMoa6e+2a8jrgy5to4dGgu6xQ6jTxWbvgDeB6Hct
WGqf8f9s5lSpH8D8OZLDOXKolqnBd5YrJr0Qmpq4cCcIqwNCMbURtsTpbW/EdWl+
AKwnStXXLI5O6Hg+m4c3O8ZwbzcnAOgTJePm2Xoi71t9SbAZZx1/W7p6/57UGrXR
Q4WfiwpOPD0siF33yO2L7G7Gmm4zh8ieX8aS8guqfWFhuSsDta77F2FB9ozD9WN0
Z5tJowiy3Z1VkxvZjZH8IbcB05yBBBV47BJxrPnSuDT+w45yNTqZ6m4VYwARAQAB
zsFNBE58tdUBEACyIiG/54lsujOhnwTLf9hAVqS7hPhWFXlEBqRoVw9q1ITqPVKa
MQQ/2OZnOTmibFS938kmEJXVRTmk+z7tCdTeRVyAXJILW093oPkxg/ViHycumaVo
wSn+iuH68E8EaSwSqmYXAP+/Cs8RR3kR41eHBFWVTaEbVai2Lk5W3ZZB+htmMYAo
qMQH6r7Bo7INhEu15esc97mgR9QxV+0ti1x5Ax55aFjk2g0Xv+IdlZxR3++sbCQo
LdrHiafdZCPG4bkewlKzuZpETIZ6f8/b+r3NqnDL/BDCuthYgWqhDWioOemoPCHL
o2q9WMFxu6GITrmIlsahqSVMIOfofx3mMOUPLntFMBzwlGUdeKc0AisWoETIm4rn
zpUulEWwnARuOHXRQLdr6qqKSKNOvZqMX6rejhooOfXGL+z0jHx19uXVdNTbPtkd
XqO6opLZFftwkkrP3VAK3E8cqL7mnSAFGmQCd16rEtxRs2bD2DGDTPX2majnxepp
hpgmUSTDBElrlo3PGZ1QL+Jbsg9fL5bK/yfaztLdvLODycqiRqMxFywS7bGglYoc
QRzGO0Cv6QtI0Z4i6Xp4gwx2PO+UyIht565rUfOJ51vVjThurbmiHAeoQ/w5kq+9
q0aDRKQmv3k+14gjsphh0uYFkfveEdfida0GW3dU/IEqv50EJbiSCO6M+wARAQAB
wsF2BBgBCgAgAhsMFiEEZH8oZUiU471FcZm+ONu9yGCSaT4FAmn4mEIACgkQONu9
yGCSaT4cQBAAqqCPdK8GwElBYGS3rt157l75FPfdWZx/Us75bGtTeCgYyvUcPiYC
aAtuqaB7LS83yVx74GzZ8nIKcmAdOP/T9VvOneQG9+0InEWRGtuSiJUy1An3wTnY
v14I4nIVVGXGubCoAd85aBUmcaHJNybWBWEba0E4TjL45A0tw8POYcLA4ONQanSk
9RhA1VepylhTaskACXpDR32MA+WStBlT/+fTrC0RaH6uXl9R7W3hvxaBEXGLHkbO
yNxVw5Fi+4SK5Fq1DTYwUR5wWT7Ot2fk3pOeeXBi99YDx02qGzwuOAIsK5c7Y7UM
0UH+ZxwQFI//vuCjVK/8r7UJ0/NHlLvgdhKWbOSShz6NknnLNe3X1MgfULXV1pSs
lXVmz0Hxe46itxvXljK6Fyge7V/4VmO/JrbfXafTmdrWpJKCO/XMFbpniZ+rDSMt
cmNuiF9nCYm2IqMv19ZNF4K46auIDcZsRs7q97Zpy5JhWtlecj6Qoy8XuBCtFGMQ
o1ATPn2hTq0NQPDzmHH1IASeQjDlXf59SYbdrr6YS1XlcfTIgvCbFvc9CdAgAvOl
kkX3MW7y74F+nMc3sxWw3nItxaAJb606iMpMTyrpd48PgZOvtScebIl7Z1mSxB4I
2AzexeHid8shQDbNcwCiCk5b87iOgPVUm+yhcp/fhhfkAiIA3xo5q+HCwXYEGAEC
AAkFAk58tdUCGwwAIQkQONu9yGCSaT4WIQRkfyhlSJTjvUVxmb44273IYJJpPjBT
EAC+6nWLKuUdxyHZEd/GmYVEFg07C2akTEkHL4pTMNnpGMxNMcVvDdiuSRcDVwxC
hsXa9PGc1mzkHYje7ayn8APUx4XEP8x7m15tlyMlMEfwMF8oxHAXBfd9sfhfsxws
PpdgwgTPtWjR7exPMJWpkzbs2Y9muFYePTktAiWIt5S7Jfni9jAvrqGW8+40+ESw
i5ptUZhiFVZ3hlp+FwjRXcsZj8onAFmrimqXNU8QsyTFy8IaGLX0YN4XfVnz2mW6
BXTbTuQiMVv7XXuhfgV7OW7UEalwL2zXZl32uHLcrMurAKjECBtku8LBoZ8QsNKK
Q8mCkE6+mHWBMClfXX/trb+R85hgRT6G2epObiTnqROuWVFf4IKDFDZpnXdx1oW0
dPMA6edgk0SNdLQKUTLEhdeegufCNy4txNNVveQ0fssChH/HUmZtHWieEg4H9HAU
lxRPf+aUkW1dRpwYJJIKkK0vQd7BTRivS4vk3HnWLuk0bhpwgk214rPU8zJphksR
NVj9641nUD/PJo0qztj9IJtrmrjI6YNz+yRIpRB8/vJDwqJTq1SZ5YBp+pS40j3j
ozRFGwqfGZziC5ZfK9RbB2un4ABh/NyRlTiAYhFVYpK8boJMoOzQe1nlbVwDf6Wt
y6voekrLOTnu4Y5GpY4Wq5AREyzShd0cpznDnmyjOIKWVA==
=OTRf
-----END PGP PUBLIC KEY BLOCK-----
